app/images/sort.svg

<svg width="20" height="20" viewBox="0 0 20 20" fill="none" xmlns="http://www.w3.org/2000/svg">
<path d="M15.131 19.1623C15.131 19.4401 15.3558 19.6649 15.6337 19.6649C15.9116 19.6649 16.1364 19.4401 16.1364 19.1623V2.04741L19.1441 5.05517C19.2422 5.15325 19.3689 5.20229 19.4997 5.20229C19.6304 5.20229 19.7571 5.15325 19.8552 5.05517C20.0514 4.85901 20.0514 4.54434 19.8552 4.34819L15.9933 0.486311C15.8053 0.298325 15.4743 0.298325 15.2863 0.486311L11.4245 4.34819C11.2283 4.54434 11.2283 4.85901 11.4245 5.05517C11.6206 5.25133 11.9353 5.25133 12.1315 5.05517L15.1392 2.04741V19.1623H15.131Z" fill="white"/>
<path d="M8.57785 14.9448C8.38169 14.7487 8.06702 14.7487 7.87086 14.9448L4.8631 17.9526V0.837762C4.8631 0.559871 4.63833 0.335106 4.36044 0.335106C4.08255 0.335106 3.85779 0.559871 3.85779 0.837762V17.9526L0.854107 14.9448C0.657948 14.7487 0.343278 14.7487 0.147119 14.9448C-0.0490396 15.141 -0.0490396 15.4557 0.147119 15.6518L4.00899 19.5137C4.10707 19.6118 4.23376 19.6608 4.36453 19.6608C4.4953 19.6608 4.62199 19.6118 4.72007 19.5137L8.58194 15.6518C8.76992 15.4597 8.76992 15.141 8.57785 14.9448Z" fill="white"/>
</svg>

<svg width="20" height="20" fill="none" xmlns="http://www.w3.org/2000/svg"><path d="M15.131 19.162a.502.502 0 1 0 1.005 0V2.047l3.008 3.008a.498.498 0 0 0 .356.147.498.498 0 0 0 .355-.854L15.993.486a.514.514 0 0 0-.707 0l-3.861 3.862a.498.498 0 0 0 0 .707c.196.196.51.196.707 0l3.007-3.008v17.115h-.008zM8.578 14.945a.498.498 0 0 0-.707 0l-3.008 3.008V.838a.502.502 0 1 0-1.005 0v17.115L.854 14.945a.498.498 0 0 0-.707 0 .498.498 0 0 0 0 .707l3.862 3.862a.498.498 0 0 0 .356.147c.13 0 .257-.05.355-.147l3.862-3.862a.51.51 0 0 0-.004-.707z" fill="#fff"/></svg>
